X: 24069
T: Long Drop, The
R: reel
M: 4/4
K: Gmajor
|:gedg edBA|GEEE EDB,D|GG G2 BABc|dBeB dGBd|
gedg edBA|GEEE EDB,D|GGGA (3Bcd eg|dBAc BG (3Bcd:|
|:gBBA BBgB|BggB aged|cBcd e~eef|gdbg edBd|
gBBA BBgB|BggB aged|cBcd edge|dBAc BGG2]:|

